X: 11020
T: COUSIN SARAH BETH'S JIG
C: Bob McQuillen 30 Oct 99
B: Bob's Note Book 11 #20
R: jig
Z: 2020 John Chambers <jc:trillian.mit.edu>
M: 6/8
L: 1/8
K: D
A \
| d2A AFA | GAB AFA | d2A AFA | GFG EFA |\
| d2A AFD | GAB AFA | Bcd cde | fdd d2 :|
|: e \
| f2d dcB | ABd cde | f2d dcB | AGF E2g |\
| f2d dcd | Bcd AFD | EFG ABc | dDD D2 :|
%%begintext align
%% Once upon a time I had a
%% lovely wife named Priscilla: her grandfather was
%% Luke Harland Richardson. Sarah Beth Richardson's
%% great-grandfather was Clifton Richardson, and he and
%% Luke Harland were brothers. I guess that makes Sarah
%% Beth and me cousins*! Pretty neat, eh? And believe
%% me, Sary Beth's pretty neat, too! She's a real Sweetheart!
%%endtext
%%center *sort of, anyhow!

%%sep 1 1 500

%%sep 1 1 500

